packages/foundations/assets/icons/functional/images/arrows/arrow_up_right_16.svg

<svg width="16" height="16" viewBox="0 0 16 16" fill="none" xmlns="http://www.w3.org/2000/svg">
<g clip-path="url(#clip0_77_524)">
<path fill-rule="evenodd" clip-rule="evenodd" d="M5.40701 4.2H11.004C11.414 4.2 11.8 4.508 11.8 4.919V10.593C11.8 11.004 11.44 11.389 11.004 11.389C10.899 11.3906 10.7948 11.3711 10.6975 11.3317C10.6002 11.2923 10.5118 11.2337 10.4375 11.1595C10.3633 11.0852 10.3047 10.9968 10.2653 10.8995C10.2259 10.8022 10.2064 10.698 10.208 10.593V6.922L5.53501 11.595C5.40701 11.749 5.22701 11.8 5.04701 11.8C4.82302 11.7979 4.60879 11.708 4.4504 11.5496C4.29201 11.3912 4.2021 11.177 4.20001 10.953C4.20001 10.799 4.25101 10.619 4.35401 10.516L9.07801 5.792H5.40701C5.30401 5.79439 5.20156 5.77629 5.1056 5.73877C5.00965 5.70124 4.92211 5.64503 4.84805 5.57339C4.774 5.50176 4.71491 5.41613 4.67422 5.32147C4.63353 5.22682 4.61204 5.12502 4.61101 5.022C4.61101 4.585 4.94501 4.2 5.40701 4.2Z" fill="#1A1C1F"/>
</g>
<defs>
<clipPath id="clip0_77_524">
<rect width="16" height="16" fill="white"/>
</clipPath>
</defs>
</svg>

<svg xmlns="http://www.w3.org/2000/svg" width="16" height="16" fill="none"><g clip-path="url(#a)"><path fill="#1A1C1F" fill-rule="evenodd" d="M5.407 4.2h5.597c.41 0 .796.308.796.719v5.674c0 .411-.36.796-.796.796a.785.785 0 0 1-.796-.796V6.922l-4.673 4.673c-.128.154-.308.205-.488.205a.855.855 0 0 1-.847-.847c0-.154.051-.334.154-.437l4.724-4.724H5.407a.78.78 0 0 1-.796-.77c0-.437.334-.822.796-.822" clip-rule="evenodd"/></g><defs><clipPath id="a"><path fill="#fff" d="M0 0h16v16H0z"/></clipPath></defs></svg>
